**kern	**text	**kern	**text	**kern	**text	**kern	**text	**kern	**text
*staff5	*staff5	*staff4	*staff4	*staff3	*staff3	*staff2	*staff2	*staff1	*staff1
*I"Basso	*	*I"Tenore	*	*I"Alto	*	*I"Soprano II	*	*I"Soprano I	*
=1-	=1-	=1-	=1-	=1-	=1-	=1-	=1-	=1-	=1-
*clefF4	*	*clefGv2	*	*clefGv2	*	*clefG2	*	*clefG2	*
*k[]	*	*k[]	*	*k[]	*	*k[]	*	*k[]	*
*met(c|)	*	*met(c|)	*	*met(c|)	*	*met(c|)	*	*met(c|)	*
*M2/2	*	*M2/2	*	*M2/2	*	*M2/2	*	*M2/2	*
[1G	Je-	[1B	Je-	[1d	Je-	1r	.	[1g	Je-
=2	=2	=2	=2	=2	=2	=2	=2	=2	=2
1G]	.	1B]	.	1d]	.	1r	.	1g]	.
=3	=3	=3	=3	=3	=3	=3	=3	=3	=3
2C/	-sum	2c\	-sum	2e\	-sum	1r	.	2g/	-sum
[2E\	tra-	[2B\	tra-	[2e\	tra-	.	.	[2g/	tra-
=4	=4	=4	=4	=4	=4	=4	=4	=4	=4
4E\]	.	4B\]	.	4e\]	.	1r	.	4g/]	.
4E\	-di-	4B\	-di-	4e\	-di-	.	.	4g/	-di-
2E\	-dit	2G/	-dit	2B\	-dit	.	.	2g/	-dit
=5	=5	=5	=5	=5	=5	=5	=5	=5	=5
2.D\	im-	2.A/	im-	2.d\	im-	1r	.	2.f#/	im-
4D\	-pi-	4A/	-pi-	4d\	-pi-	.	.	4f#/	-pi-
=6	=6	=6	=6	=6	=6	=6	=6	=6	=6
2GG/	-us	2B\	-us	2d\	-us	1r	.	2g/	-us
2C/	sum-	2c\	sum-	2e\	sum-	.	.	2g/	sum-
=7	=7	=7	=7	=7	=7	=7	=7	=7	=7
2C/	-mis	2c\	-mis	2e\	-mis	1r	.	2g/	-mis
2C/	prin-	2G/	prin-	2c\	prin-	.	.	2e/	prin-
=8	=8	=8	=8	=8	=8	=8	=8	=8	=8
2.F\	-ci-	2.A/	-ci-	2.c\	-ci-	1r	.	2.f/	-ci-
4F\	-pi-	4A/	-pi-	4c\	-pi-	.	.	4f/	-pi-
=9	=9	=9	=9	=9	=9	=9	=9	=9	=9
2C/	-bus	2G/	-bus	2c\	-bus	1r	.	2e/	-bus
[2C/	sa-	[2G/	sa-	[2c\	sa-	.	.	[2e/	sa-
=10	=10	=10	=10	=10	=10	=10	=10	=10	=10
2C/]	.	2G/]	.	2c\]	.	1r	.	2e/]	.
2AA/	-cer-	2A/	-cer-	2c\	-cer-	.	.	2e/	-cer-
=11	=11	=11	=11	=11	=11	=11	=11	=11	=11
!!linebreak:original
1D	-do-	1F	-do-	2A/	-do-	1r	.	1d	-do-
.	.	.	.	2B\	.	.	.	.	.
=12	=12	=12	=12	=12	=12	=12	=12	=12	=12
2C/	-tum,	2G/	-tum,	2c\	-tum,	1r	.	2e/	-tum,
2C/	et	2c\	et	2e\	et	.	.	2g/	et
=13	=13	=13	=13	=13	=13	=13	=13	=13	=13
2G\	se-	2B\	se-	2d\	se-	1r	.	2g/	se-
2E\	-ni-	2c\	-ni-	2e\	-ni-	.	.	2g/	-ni-
=14	=14	=14	=14	=14	=14	=14	=14	=14	=14
2.F\	-o-	2.A/	-o-	2.c\	-o-	1r	.	2.a/	-o-
4F\	-ri-	4B\	-ri-	4d\	-ri-	.	.	4a/	-ri-
=15	=15	=15	=15	=15	=15	=15	=15	=15	=15
1E	-bus	2B\	-bus	1e	-bus	1r	.	1g	-bus
.	.	[2c\	po-	.	.	.	.	.	.
=16	=16	=16	=16	=16	=16	=16	=16	=16	=16
2.G\	po-	2c\]	.	2.d\	po-	1r	.	2.g/	po-
.	.	2B\	-pu-	.	.	.	.	.	.
4G\	-pu-	.	.	4d\	-pu-	.	.	4g/	-pu-
=17	=17	=17	=17	=17	=17	=17	=17	=17	=17
[1C	-li:	[1c	-li:	[1e	-li:	1r	.	[1g	-li:
=18	=18	=18	=18	=18	=18	=18	=18	=18	=18
1C]	.	1c]	.	1e]	.	1r	.	1g]	.
=19||	=19||	=19||	=19||	=19||	=19||	=19||	=19||	=19||	=19||
[1C	Pe-	[1G	Pe-	[1c	Pe-	1r	.	[1e	Pe-
=20	=20	=20	=20	=20	=20	=20	=20	=20	=20
2C/]	.	2G/]	.	2c\]	.	1r	.	2e/]	.
2C/	-trus	2G/	-trus	2c\	-trus	.	.	2e/	-trus
=21	=21	=21	=21	=21	=21	=21	=21	=21	=21
1E	au-	1G	au-	1B	au-	1r	.	1g	au-
=22	=22	=22	=22	=22	=22	=22	=22	=22	=22
!!pagebreak:original
2D\	-tem	2A/	-tem	2d\	-tem	1r	.	2f#/	-tem
[2D\	se-	[2A/	se-	[2d\	se-	.	.	[2f#/	se-
=23	=23	=23	=23	=23	=23	=23	=23	=23	=23
2D\]	.	2A/]	.	2d\]	.	1r	.	2f#/]	.
2D\	-que-	2A/	-que-	2d\	-que-	.	.	2f#i/	-que-
=24	=24	=24	=24	=24	=24	=24	=24	=24	=24
2D\	-ba-	2A/	-ba-	2d\	-ba-	1r	.	2f#i/	-ba-
2G\	-tur	2B\	-tur	2d\	-tur	.	.	2g/	-tur
=25	=25	=25	=25	=25	=25	=25	=25	=25	=25
1F	e-	1c	e-	1f	e-	1r	.	1a	e-
=26	=26	=26	=26	=26	=26	=26	=26	=26	=26
2F\	-um	2d\	-um	2f\	-um	1r	.	2a/	-um
2E\	a	2B\	a	2e\	a	.	.	2g/	a
=27	=27	=27	=27	=27	=27	=27	=27	=27	=27
1A	lon-	1c	lon-	2e\	lon-	1r	.	2.e/	lon-
.	.	.	.	4d\	.	.	.	.	.
.	.	.	.	4c\	.	.	.	4f/	.
=28	=28	=28	=28	=28	=28	=28	=28	=28	=28
1G	-ge,	[1B	-ge,	[1d	-ge,	1r	.	[1g	-ge,
=29	=29	=29	=29	=29	=29	=29	=29	=29	=29
[1GG	ut	1B]	.	1d]	.	1r	.	1g]	.
=30	=30	=30	=30	=30	=30	=30	=30	=30	=30
2GG/]	.	1G	ut	1B	ut	1r	.	1d	ut
2BB/	vi-	.	.	.	.	.	.	.	.
=31	=31	=31	=31	=31	=31	=31	=31	=31	=31
1C	-de-	2E/	vi-	2G/	vi-	1r	.	2e/	vi-
.	.	[2A/	-de-	[2c\	-de-	.	.	[2e/	-de-
=32	=32	=32	=32	=32	=32	=32	=32	=32	=32
1E	-ret	2A/]	.	4c\]	.	1r	.	2e/]	.
.	.	.	.	4B\	.	.	.	.	.
.	.	2G/	-ret	4B\	-ret	.	.	2B/	-ret
.	.	.	.	8A/L	.	.	.	.	.
.	.	.	.	8G/J	.	.	.	.	.
=33	=33	=33	=33	=33	=33	=33	=33	=33	=33
!!linebreak:original
[1D	fi-	2F#/	fi-	2A/	fi-	1r	.	[1d	fi-
.	.	[2G/	.	2B\	.	.	.	.	.
=34	=34	=34	=34	=34	=34	=34	=34	=34	=34
1D]	.	4G/]	.	1A	.	1r	.	1d]	.
.	.	8F#i/L	.	.	.	.	.	.	.
.	.	8E/J	.	.	.	.	.	.	.
.	.	2F#/	.	.	.	.	.	.	.
=35	=35	=35	=35	=35	=35	=35	=35	=35	=35
[1GG	-nem.	[1G	-nem.	[1B	-nem.	1r	.	[1d	-nem.
=36	=36	=36	=36	=36	=36	=36	=36	=36	=36
1GG]	.	1G]	.	1B]	.	1r	.	1d]	.
=37||	=37||	=37||	=37||	=37||	=37||	=37||	=37||	=37||	=37||
1r	.	1r	.	1r	.	1r	.	[1g	Ad-
=38	=38	=38	=38	=38	=38	=38	=38	=38	=38
1r	.	1r	.	1c	Ad-	1r	.	2g/]	.
.	.	.	.	.	.	.	.	2e/	-du-
=39	=39	=39	=39	=39	=39	=39	=39	=39	=39
1r	.	1r	.	2A/	-du-	1r	.	2f/	-xe-
.	.	.	.	[2c\	-xe-	.	.	2e/	-runt
=40	=40	=40	=40	=40	=40	=40	=40	=40	=40
1r	.	1r	.	2c\]	.	1r	.	1a	e-
.	.	.	.	2d\	-runt	.	.	.	.
=41	=41	=41	=41	=41	=41	=41	=41	=41	=41
1r	.	1r	.	1e	e-	1r	.	2g/	-um
.	.	.	.	.	.	.	.	2g/	ad
=42	=42	=42	=42	=42	=42	=42	=42	=42	=42
1r	.	1r	.	2d\	-um	1r	.	2f/	Ca-
.	.	.	.	2B\	ad	.	.	2d/	-i-
=43	=43	=43	=43	=43	=43	=43	=43	=43	=43
1r	.	1r	.	2c\	Ca-	1r	.	2e/	-pham
.	.	.	.	2e\	-i-	.	.	[2g/	prin-
=44	=44	=44	=44	=44	=44	=44	=44	=44	=44
!!linebreak:original
1r	.	1r	.	2d\	-pham	1r	.	2g/]	.
.	.	.	.	2d\	prin-	.	.	2f/	-ci-
=45	=45	=45	=45	=45	=45	=45	=45	=45	=45
1r	.	1r	.	2B\	-ci-	1r	.	2g/	-pem
.	.	.	.	2c\	-pem	.	.	2g/	sa-
=46	=46	=46	=46	=46	=46	=46	=46	=46	=46
1r	.	1r	.	2f\	sa-	1r	.	2a/	-cer-
.	.	.	.	2e\	-cer-	.	.	[2cc\	-do-
=47	=47	=47	=47	=47	=47	=47	=47	=47	=47
1r	.	1r	.	1d	-do-	1r	.	2cc\]	.
.	.	.	.	.	.	.	.	2b\	.
=48	=48	=48	=48	=48	=48	=48	=48	=48	=48
1r	.	1r	.	1c	-tum,	1r	.	1cc	-tum,
=49	=49	=49	=49	=49	=49	=49	=49	=49	=49
1r	.	1r	.	2r	.	1e	u-	2r	.
.	.	.	.	[2A/	u-	.	.	2a/	u-
=50	=50	=50	=50	=50	=50	=50	=50	=50	=50
1r	.	1r	.	2A/]	.	1d	-bi	2f#/	-bi
.	.	.	.	2B\	-bi	.	.	[2g/	scri-
=51	=51	=51	=51	=51	=51	=51	=51	=51	=51
1r	.	1r	.	1c	scri-	1e	scri-	2g/]	.
.	.	.	.	.	.	.	.	2g/	-bae
=52	=52	=52	=52	=52	=52	=52	=52	=52	=52
1r	.	1r	.	2F/	-bae	1f	-bae	[1a	et
.	.	.	.	2f\	et	.	.	.	.
=53	=53	=53	=53	=53	=53	=53	=53	=53	=53
1r	.	1r	.	2f\	pha-	2cc\	et	2a/]	.
.	.	.	.	2e\	-ri-	2cc\	pha-	[2g/	pha-
=54	=54	=54	=54	=54	=54	=54	=54	=54	=54
1r	.	1r	.	1d	-sae-	2b\	-ri-	2g/]	.
.	.	.	.	.	.	[2a/	-sae-	2f/	-ri-
=55	=55	=55	=55	=55	=55	=55	=55	=55	=55
!!pagebreak:original
1r	.	1r	.	1c	-i	2a/]	.	1e	-sae-
.	.	.	.	.	.	2g/	-i	.	.
=56	=56	=56	=56	=56	=56	=56	=56	=56	=56
1r	.	1r	.	1B	con-	2g/	con-	1d	-i
.	.	.	.	.	.	2g/	-ve-	.	.
=57	=57	=57	=57	=57	=57	=57	=57	=57	=57
1r	.	1r	.	1e	-ve-	1g	-ne-	2c/	con-
.	.	.	.	.	.	.	.	[2g/	-ve-
=58	=58	=58	=58	=58	=58	=58	=58	=58	=58
1r	.	1r	.	2.d\	.	1a	.	2g/]	.
.	.	.	.	.	.	.	.	2f#/	-ne-
.	.	.	.	4d\	-ne-	.	.	.	.
=59	=59	=59	=59	=59	=59	=59	=59	=59	=59
1r	.	1r	.	[1G	-rant.	[1b	-rant.	[1g	-rant.
=60	=60	=60	=60	=60	=60	=60	=60	=60	=60
1r	.	1r	.	1G]	.	1b]	.	1g]	.
=61||	=61||	=61||	=61||	=61||	=61||	=61||	=61||	=61||	=61||
[1C	Pe-	[1G	Pe-	[1c	Pe-	[1e	Pe-	[1e	Pe-
=62	=62	=62	=62	=62	=62	=62	=62	=62	=62
2C/]	.	2G/]	.	2c\]	.	2e/]	.	2e/]	.
2C/	-trus	2G/	-trus	2c\	-trus	2e/	-trus	2e/	-trus
=63	=63	=63	=63	=63	=63	=63	=63	=63	=63
1E	au-	1G	au-	1B	au-	1g	au-	1g	au-
=64	=64	=64	=64	=64	=64	=64	=64	=64	=64
2D\	-tem	2A/	-tem	2d\	-tem	2f#/	-tem	2f#/	-tem
[2D\	se-	[2A/	se-	[2d\	se-	[2f#/	se-	[2f#/	se-
=65	=65	=65	=65	=65	=65	=65	=65	=65	=65
2D\]	.	2A/]	.	2d\]	.	2f#/]	.	2f#/]	.
2D\	-que-	2A/	-que-	2d\	-que-	2f#i/	-que-	2f#i/	-que-
=66	=66	=66	=66	=66	=66	=66	=66	=66	=66
!!linebreak:original
2D\	-ba-	2A/	-ba-	2d\	-ba-	2f#i/	-ba-	2f#i/	-ba-
2G\	-tur	2B\	-tur	2d\	-tur	2g/	-tur	2g/	-tur
=67	=67	=67	=67	=67	=67	=67	=67	=67	=67
1F	e-	1c	e-	1f	e-	1a	e-	1a	e-
=68	=68	=68	=68	=68	=68	=68	=68	=68	=68
2F\	-um	2d\	-um	2f\	-um	2a/	-um	2a/	-um
2E\	a	2B\	a	2e\	a	2g/	a	2g/	a
=69	=69	=69	=69	=69	=69	=69	=69	=69	=69
1A	lon-	1c	lon-	2e\	lon-	2.e/	lon-	2.e/	lon-
.	.	.	.	4d\	.	.	.	.	.
.	.	.	.	4c\	.	4f/	.	4f/	.
=70	=70	=70	=70	=70	=70	=70	=70	=70	=70
1G	-ge,	[1B	-ge,	[1d	-ge,	[1g	-ge,	[1g	-ge,
=71	=71	=71	=71	=71	=71	=71	=71	=71	=71
[1GG	ut	1B]	.	1d]	.	1g]	.	1g]	.
=72	=72	=72	=72	=72	=72	=72	=72	=72	=72
2GG/]	.	1G	ut	1B	ut	1d	ut	1d	ut
2BB/	vi-	.	.	.	.	.	.	.	.
=73	=73	=73	=73	=73	=73	=73	=73	=73	=73
1C	-de-	2E/	vi-	2G/	vi-	2e/	vi-	2e/	vi-
.	.	[2A/	-de-	[2c\	-de-	[2e/	-de-	[2e/	-de-
=74	=74	=74	=74	=74	=74	=74	=74	=74	=74
1E	-ret	2A/]	.	4c\]	.	2e/]	.	2e/]	.
.	.	.	.	4B\	.	.	.	.	.
.	.	2G/	-ret	4B\	-ret	2B/	-ret	2B/	-ret
.	.	.	.	8A/L	.	.	.	.	.
.	.	.	.	8G/J	.	.	.	.	.
=75	=75	=75	=75	=75	=75	=75	=75	=75	=75
[1D	fi-	2F#/	fi-	2A/	fi-	[1d	fi-	[1d	fi-
.	.	[2G/	.	2B\	.	.	.	.	.
=76	=76	=76	=76	=76	=76	=76	=76	=76	=76
1D]	.	4G/]	.	1A	.	1d]	.	1d]	.
.	.	8F#i/L	.	.	.	.	.	.	.
.	.	8E/J	.	.	.	.	.	.	.
.	.	2F#/	.	.	.	.	.	.	.
=77	=77	=77	=77	=77	=77	=77	=77	=77	=77
[1GG	-nem.	[1G	-nem.	[1B	-nem.	[1d	-nem.	[1d	-nem.
=78	=78	=78	=78	=78	=78	=78	=78	=78	=78
1GG]	.	1G]	.	1B]	.	1d]	.	1d]	.
==	==	==	==	==	==	==	==	==	==
*-	*-	*-	*-	*-	*-	*-	*-	*-	*-
!!!OTL: Jesum tradidit 
!!!COM: Ingegneri, Marc' Antonio
!!!CDT: ca. 1535/36-1592-07-01
!!!TXO: Latin
!!!ODT: 
!!!ARL: Klasztor OO. Paulinów na Jasnej Górze
!!!voices:	5
!!title: @{OTL}, @{GTL}, ed. @{ENC}
!!!pag:
!!!GTL: Responsoria in Hebdomada majore
!!!EFL: 
!!!YEM: Creative Commons CC/BY/NC/SA 4.0
!!!ENC: Marcin Konik
!!!END: 2015-0m-dd
!!!EED: Marcin Konik
!!!EEV: 
!!!ONB: Encoded in vim by Marcin Konik
!!!CharacterEncoding: utf-8
!!!RDF**kern: l=long note in original notation
!!!RDF**kern: i=editorial accidental
!!muse2ps: z14jc180F
